!!!id: EG019c
!!!page: 8-9
!!!COM: Anonymous
!!!LYR: Anonymous
!!!PTL@@FR: Chansons Populaires du Canada
!!!OTL@@FR: C'est la belle françoise
!!!PUB: G. E. Desbarats
!!!YEM:
!!!PDT: 1865
!!!SMA:
!!!OMD:
!!!AGN-Laforte: Chanson strophique (avec refrain intégreé et final
!!!AGN-metre: 5:2*2(6); R:3(2,5,5)
!!!AGN-type: mariage
!!!AGN-rime: aabb (without refrain)
**kern	**text
*clefG2	*
*k[b-e-]	*
*g:	*
*M6/8	*
*	*v:1
*	*pline:1
8dd	C'est
=1	=1
4dd	la
8b-/	bel-
4dd	-le
8cc	Fran-
=2	=2
(8ccN/	.
8b-)	-çoi-
8a\	-se,
*	*rp:a
*	*rf:waz,ə
*	*rs:a
*	*refrain
*	*italic
8b-	lon,
4g	gai,
*	*Xitalic
*	*Xrefrain
*	*pline:1r
8dd	C'est
=3	=3
4dd	la
8een	bel-
4ff	-le
8a)	Fran-
!!LO:PB:g=original
=4	=4
(8Ncc/	.
((4b-/)	-çoi-
8a)	.
4g	-se
*	*rp:a
*	*rf:waz,ə
*	*rs:a
8r	.
=5	=5
*	*pline:2
4.b-	Qui
4.f	veut
=6	=6
8g	se
8a	ma-
8b-/	-ri-
8cc	-er,
*	*rp:e
*	*rf:je
*	*rs:b
*	*refrain
*	*italic
8b-	ma
8cc	lu-
=7	=7
4dd	-ron,
8cc	lu-
(8Ncc/	.
8b-L)	-ret-
8aJ	.
8g	-te,
*	*Xitalic
*	*Xrefrain
!!LO:PB:g=original
=8	=8
*	*pline:2r
4.b-/	Qui
4.f	veut
=9	=9
8g	s'y
8a	ma-
8b-/	-ri-
8cc	-er,
8cc	-er,
*	*rp:e
*	*rf:je
*	*rs:b
*	*refrain
*	*italic
8b-	ma
8cc	lu-
=10	=10
4dd	-ron,
8b-	lu-
*cue	*
(8Nb-/	.
*Xcue	*
4g)	-ré.
*	*Xitalic
*	*Xrefrain
==||	==||
*-	*-
!!!RDF**kern: N = cue size
!!!EED: Ève Poudrier
!!!EEV: 2026/04/13
